packages/core/src/svgs/tkn.svg

<svg width="24" height="24" viewBox="0 0 24 24" fill="none" xmlns="http://www.w3.org/2000/svg">
<g clip-path="url(#clip0_31_19801)">
<path d="M0 0H24V24H0V0Z" fill="#24DD7B"/>
<path d="M9.85714 6.45278L12.8571 5.14307V8.57164H16.7143V11.1431H12.8571V15.1678C12.8571 16.4295 15.0669 16.5735 15.8571 16.1552L16.5669 18.3358C14.826 19.3712 9.85714 19.1244 9.85714 15.1884V6.45278ZM7.31914 11.6574C6.58929 11.6574 6 10.9236 6 10.0185C6 9.11335 6.59571 8.3865 7.326 8.3865C8.06229 8.3865 8.65157 9.11335 8.65157 10.0185C8.65157 10.9168 8.06229 11.6501 7.326 11.6501L7.31914 11.6574Z" fill="white"/>
</g>
<defs>
<clipPath id="clip0_31_19801">
<rect width="24" height="24" fill="white"/>
</clipPath>
</defs>
</svg>

<svg xmlns="http://www.w3.org/2000/svg" width="24" height="24" fill="none" viewBox="0 0 24 24"><g clip-path="url(#a)"><path fill="#24DD7B" d="M0 0h24v24H0z"/><path fill="#fff" d="m9.857 6.453 3-1.31v3.429h3.857v2.571h-3.857v4.025c0 1.262 2.21 1.406 3 .987l.71 2.18c-1.741 1.036-6.71.79-6.71-3.147zM7.32 11.657c-.73 0-1.319-.733-1.319-1.639 0-.905.596-1.632 1.326-1.632.736 0 1.326.727 1.326 1.633 0 .898-.59 1.631-1.326 1.631z"/></g><defs><clipPath id="a"><path fill="#fff" d="M0 0h24v24H0z"/></clipPath></defs></svg>
